X:488
T:B488-  The Vicar of Bray (Tune = Country Garden)
S:tune from single sheet, c 1740, (also in Quaker's Opera, 1728)
Q:1/4=120
L:1/4
M:C|
K:G
d|gf/e/de|cdBB|dGcB/c/|BAGd|\
gf/e/de|cdBB|dGcB/c/|BAG||d|\
gefd|gf/e/fd|gf/g/ag/f/|e2dd|\
gf/e/de|cdBB|eGcB/c/|BAG||"Chorus"d|\
gf/e/fd|g/f/ f/e/fd|gf/g/ag/f/|e2dd|\
gf/e/de|cdBB|eGcB/c/|BAG|]



